svg/user/group_2_fill.svg

<svg xmlns="http://www.w3.org/2000/svg" width="24" height="24" viewBox="0 0 24 24"><g fill="none"><path d="M24,0 L24,24 L0,24 L0,0 L24,0 Z M12.5935,23.2578 L12.5819,23.2595 L12.5109,23.295 L12.4919,23.2987 L12.4767,23.295 L12.4057,23.2595 C12.3958,23.2564 12.387,23.259 12.3821,23.2649 L12.378,23.2758 L12.3609,23.7031 L12.3659,23.7235 L12.3769,23.7357 L12.4805,23.8097 L12.4953,23.8136 L12.5071,23.8097 L12.6107,23.7357 L12.6233,23.7197 L12.6267,23.7031 L12.6096,23.2758 C12.6076,23.2657 12.601,23.2593 12.5935,23.2578 Z M12.8584,23.1453 L12.8445,23.1473 L12.6598,23.2397 L12.6499,23.2499 L12.6472,23.2611 L12.6651,23.6906 L12.6699,23.7034 L12.6784,23.7105 L12.8793,23.8032 C12.8914,23.8069 12.9022,23.803 12.9078,23.7952 L12.9118,23.7812 L12.8777,23.1665 C12.8753,23.1546 12.8674,23.147 12.8584,23.1453 Z M12.143,23.1473 C12.1332,23.1424 12.1222,23.1453 12.1156,23.1526 L12.1099,23.1665 L12.0758,23.7812 C12.0751,23.7927 12.0828,23.8019 12.0926,23.8046 L12.1083,23.8032 L12.3092,23.7105 L12.3186,23.7024 L12.3225,23.6906 L12.3404,23.2611 L12.3372,23.2485 L12.3278,23.2397 L12.143,23.1473 Z"/><path fill="#09244B" d="M9.5,12 C11.9853,12 14,9.98528 14,7.5 C14,5.01472 11.9853,3 9.5,3 C7.01472,3 5,5.01472 5,7.5 C5,9.98528 7.01472,12 9.5,12 Z M21,9 C21,10.6569 19.6569,12 18,12 C16.3431,12 15,10.6569 15,9 C15,7.34315 16.3431,6 18,6 C19.6569,6 21,7.34315 21,9 Z M9.5,13 C11.4926,13 13.3047,13.6085 14.6375,14.4664 C15.3039,14.8954 15.8754,15.4028 16.2897,15.9561 C16.6974,16.5007 17,17.1553 17,17.8571 C17,18.6116 16.6508,19.2176 16.1355,19.6541 C15.6508,20.0645 15.0194,20.3303 14.3653,20.513 C13.053,20.8796 11.3161,21 9.5,21 C7.68387,21 5.94698,20.8796 4.63474,20.513 C3.98063,20.3303 3.34916,20.0645 2.86453,19.6541 C2.34916,19.2176 2,18.6116 2,17.8571 C2,17.1553 2.30258,16.5007 2.71033,15.9561 C3.12464,15.4028 3.69613,14.8954 4.36254,14.4664 C5.69533,13.6085 7.50739,13 9.5,13 Z M18,13 C19.3206,13 20.5185,13.4362 21.4004,14.0513 C22.222,14.6241 23,15.5285 23,16.5714 C23,17.1577 22.7474,17.6437 22.3617,17.9975 C22.0048,18.3249 21.5531,18.5254 21.1181,18.6571 C20.2487,18.9202 19.128,19 18,19 L17.7968,18.9991 L17.7968,18.9991 C17.9263,18.6523 18,18.2707 18,17.8571 C18,16.8677 17.5767,16.0066 17.0901,15.3567 C16.6044,14.708 15.9606,14.1377 15.241,13.666 C16.0271,13.2619 16.9767,13 18,13 Z"/></g></svg>

<svg xmlns="http://www.w3.org/2000/svg" width="24" height="24"><g fill="none"><path d="M24 0v24H0V0zM12.594 23.258l-.012.002-.071.035-.02.004-.014-.004-.071-.036c-.01-.003-.019 0-.024.006l-.004.01-.017.428.005.02.01.013.104.074.015.004.012-.004.104-.074.012-.016.004-.017-.017-.427c-.002-.01-.009-.017-.016-.018m.264-.113-.014.002-.184.093-.01.01-.003.011.018.43.005.012.008.008.201.092c.012.004.023 0 .029-.008l.004-.014-.034-.614c-.003-.012-.01-.02-.02-.022m-.715.002a.023.023 0 0 0-.027.006l-.006.014-.034.614c0 .012.007.02.017.024l.015-.002.201-.093.01-.008.003-.011.018-.43-.003-.012-.01-.01z"/><path fill="#09244B" d="M9.5 12a4.5 4.5 0 1 0 0-9 4.5 4.5 0 0 0 0 9M21 9a3 3 0 1 1-6 0 3 3 0 0 1 6 0M9.5 13c1.993 0 3.805.608 5.137 1.466.667.43 1.238.937 1.653 1.49.407.545.71 1.2.71 1.901 0 .755-.35 1.36-.864 1.797-.485.41-1.117.676-1.77.859-1.313.367-3.05.487-4.866.487-1.816 0-3.553-.12-4.865-.487-.654-.183-1.286-.449-1.77-.859C2.349 19.218 2 18.612 2 17.857c0-.702.303-1.356.71-1.9.415-.554.986-1.062 1.653-1.49C5.695 13.607 7.507 13 9.5 13m8.5 0c1.32 0 2.518.436 3.4 1.051.822.573 1.6 1.477 1.6 2.52 0 .587-.253 1.073-.638 1.426-.357.328-.809.528-1.244.66-.87.263-1.99.343-3.118.343h-.203c.13-.348.203-.73.203-1.143 0-.99-.423-1.85-.91-2.5-.486-.649-1.13-1.22-1.849-1.691A6.064 6.064 0 0 1 18 13"/></g></svg>
